X:2
T:The Hangover
C:Andy Hornby 1993
Q:1/4=180
I:abc2nwc
M:15/8
L:1/8
K:G
EFG E2E2BcB ABA GF|DEF D2D2ABA GAG FD|
EFG E2E2BcB ABA GF|DEF D2D2F AGF E4:|
|:Bcd B2B2GAB cBA BG|ABc A2A2FGA BGF E2|
Bcd B2B2GAB cBA BG|ABc A2A2c BGF E4:|
